Adwaita++/actions/16/page-3sides.svg

<svg height="16" viewBox="0 0 16 16" width="16" xmlns="http://www.w3.org/2000/svg">
  <path d="m0 1v14h15v-14zm2 2h3v10h-3zm4 0h3v10h-3zm4 0h3v10h-3z" fill="#474747"/>
</svg>

<svg xmlns="http://www.w3.org/2000/svg" width="16" height="16" viewBox="0 0 16 16">
 <defs>
  <style id="current-color-scheme" type="text/css">
   .ColorScheme-Text { color:#474747; } .ColorScheme-Highlight { color:#4285f4; }
  </style>
 </defs>
 <path style="fill:currentColor" class="ColorScheme-Text" d="M 0 1 L 0 15 L 15 15 L 15 1 L 0 1 z M 2 3 L 5 3 L 5 13 L 2 13 L 2 3 z M 6 3 L 9 3 L 9 13 L 6 13 L 6 3 z M 10 3 L 13 3 L 13 13 L 10 13 L 10 3 z"/>
</svg>
